Front/img/common-section_compare/illu-2.svg

<svg width="225" height="225" viewBox="0 0 225 225" fill="none" xmlns="http://www.w3.org/2000/svg">
<path d="M124.34 54.8945H185.55C194.421 54.8945 202.93 58.4187 209.203 64.6918C215.476 70.9649 219 79.473 219 88.3445V168.235C219 177.106 215.476 185.614 209.203 191.887C202.93 198.16 194.421 201.685 185.55 201.685H44.45C35.5785 201.685 27.0704 198.16 20.7973 191.887C14.5242 185.614 11 177.106 11 168.235C11 138.175 22.9411 109.346 44.1965 88.091C65.4519 66.8357 94.2804 54.8945 124.34 54.8945Z" fill="#E1E1E1"/>
<path d="M45.4887 148.914C49.2927 149.923 53.2577 150.174 57.1587 149.654C57.1587 149.654 63.4387 150.544 60.5487 160.404C60.5487 160.404 52.2187 159.144 49.7987 159.564C47.3787 159.984 41.9887 165.424 35.6487 163.634C29.3087 161.844 45.4887 148.914 45.4887 148.914Z" fill="#F4C7C3"/>
<path d="M145.43 107.504C145.43 107.504 107.89 143.004 102.87 141.734L57.1602 149.654L60.5502 160.404C60.5502 160.404 106.22 162.404 113.55 160.404C120.88 158.404 136.39 149.004 136.39 149.004L145.43 107.504Z" fill="#00181B"/>
<path d="M202.861 199.673C203.771 195.743 218.131 136.533 214.861 122.253C211.591 107.973 200.971 106.133 196.921 108.003C193.271 109.683 191.041 105.453 190.631 104.603C188.821 100.493 189.481 90.7527 199.201 77.0827L200.261 75.7327C200.261 75.7327 211.191 70.8027 210.261 63.1927C210.261 63.1927 209.791 59.6527 205.411 59.8527C205.411 59.8527 211.581 48.3927 207.331 40.8527C202.921 33.0327 169.761 24.5012 164.501 38.5012C164.501 38.5012 147.331 87.2227 166.501 92.4527C169.87 93.2971 170.901 93.2511 174.281 92.4527C173.795 97.0982 172.682 101.656 170.971 106.003L170.291 107.223C170.291 107.223 165.581 112.113 158.531 107.413C154.751 104.883 150.281 104.953 145.431 107.483L135.261 146.003L134.941 146.613C133.831 149.203 129.491 160.013 130.591 167.393C131.861 175.833 137.281 179.973 137.411 190.573L137.551 201.163H146.551" fill="#F4C7C3"/>
<path d="M165 30.0002C161 37.2002 159.333 52.0002 159 58.5002C159.308 55.3335 161.601 47.2993 166 44.0002C170 41.0002 177 40.0002 184.5 48.0002C192 56.0002 196 52.5002 198 56.5002C199.6 59.7002 199.667 66.0002 198 70.5002C203.2 58.9002 208.167 60.0002 209.5 61.5002C213.5 57.8336 219.4 49.0002 215 47.0002C209.5 44.5002 209 36.5002 204.5 32.0002C200 27.5002 196.5 31.5002 188.5 27.0002C180.5 22.5002 170 21.0002 165 30.0002Z" fill="#00181B"/>
<path d="M192.5 89.0002L202.5 74.5002L200 75.5002C196.4 80.3002 193.5 86.5002 192.5 89.0002Z" fill="#00181B"/>
<path d="M180 26.0013C174 24.4013 168.5 26.668 166.5 28.0013C168.5 25.0013 173 22.5013 179.5 23.5013C186 24.5013 189.5 28.0013 192.5 29.0013C195.5 30.0013 200 29.0013 203 31.0013C206 33.0013 207 35.5013 209 40.0013C210.6 43.6013 213.667 46.168 215 47.0013C213.167 46.5013 209 44.4013 207 40.0013C204.5 34.5013 202 32.5013 195.5 32.0013C189 31.5013 187.5 28.0013 180 26.0013Z" fill="#383E3F"/>
<path d="M115.039 151.605C105.219 151.345 97.4491 154.425 87.1691 156.945C79.0691 158.945 65.0991 157.785 59.5391 157.215L60.5391 160.405C60.5391 160.405 106.209 162.405 113.539 160.405C120.869 158.405 136.389 149.005 136.389 149.005L137.559 143.645C131.259 147.795 122.029 151.785 115.039 151.605Z" fill="#00090A"/>
<path opacity="0.1" d="M174.131 108.771C175.598 107.444 178 93 178 93L174.131 93.9277C173.657 98.2552 172.579 102.5 170.929 106.544L170.281 107.676C169.312 108.536 168.143 109.154 166.875 109.477C165.607 109.8 164.277 109.819 163 109.531L163.133 109.578C166.621 110.329 172.663 110.088 174.131 108.771Z" fill="black"/>
<path d="M203.519 201.134C206.649 177.534 221.599 152.474 215.579 121.964C212.739 107.584 201.029 106.104 196.979 108.004C193.329 109.684 191.099 105.464 190.699 104.604C190.028 102.857 189.765 100.979 189.929 99.1141C182.799 98.9241 176.019 98.1141 173.929 95.6641C173.342 99.2061 171.999 102.003 170.499 104.003L167.999 106.503C167.999 106.503 165.499 107.524 158.999 106.004C154.166 104.874 150.299 104.954 145.429 107.524L130.659 136.003C130.659 136.003 128.499 155.003 128.499 167.003C127.499 183.503 127.859 179.913 127.999 190.503L127.999 201.134H146.609" fill="#00181B"/>
<path d="M76.2812 161.004L89.4613 161.224C89.4613 161.224 97.2812 165.024 92.2113 175.554C92.2113 175.554 81.6212 174.054 79.3812 174.614C77.1412 175.174 76.2812 161.004 76.2812 161.004Z" fill="#F4C7C3"/>
<path d="M48.2383 220.001C65.7383 219.001 78.2383 204.689 78.2383 187.021C78.2383 169.354 63.8959 155.031 46.2283 155.031C28.5607 155.031 16.7383 169.354 16.7383 187.021C16.7383 204.689 30.7383 221.001 48.2383 220.001Z" stroke="#00181B" stroke-width="7" stroke-miterlimit="10"/>
<path d="M14.5503 182.204C14.5503 182.204 22.61 182.438 28.8137 177.416C37.1208 170.711 44.8818 168.319 56.3405 174.205C68.5855 180.513 76.3607 175.426 76.3607 175.426C76.3607 175.426 76.6792 180.8 77.2252 185.726C72.0154 185.94 66.8364 186.633 61.7536 187.796C57.6897 188.734 49.922 194.056 50.1997 202.142C50.298 205.695 51.4411 217.966 51.4411 217.966C51.4411 217.966 45.3335 219.799 40.6076 218.47C40.6076 218.47 40.3866 211.308 39.9038 204.212C39.4554 197.582 33.9801 191.667 28.5616 191.481C25.5662 191.377 14.5597 191.151 14.5597 191.151L14.5503 182.204Z" fill="#00181B"/>
<path d="M47.7397 151.675C47.7397 151.675 44.3497 147.025 42.9597 147.075C41.5697 147.125 40.3397 148.525 39.4997 148.385C38.6597 148.245 36.8797 147.385 35.4297 148.385C33.9797 149.385 34.4297 150.145 31.9797 150.195C29.5297 150.245 29.5797 151.645 28.9797 152.615C28.3797 153.585 26.9797 152.985 26.3597 154.375C25.6547 156.815 25.176 159.316 24.9297 161.845C24.9297 162.625 27.6997 164.915 28.4797 165.075C29.1018 165.422 29.8239 165.546 30.5261 165.426C31.2283 165.306 31.8683 164.949 32.3397 164.415C32.3397 164.415 34.7497 165.525 36.2497 162.685C36.2497 162.685 38.7597 163.295 39.9897 161.625C39.9897 161.625 44.1697 161.785 43.9397 158.055C43.7097 154.325 47.7397 151.675 47.7397 151.675Z" fill="#F4C7C3"/>
<path d="M163.91 109.392H164C168.43 110.122 174.4 108.392 175.18 105.882C175.78 104.022 176.84 99.5416 177.32 97.4816C176.045 97.1624 174.876 96.5141 173.93 95.6016C173.347 99.164 172.375 102.652 171.03 106.002L170.35 107.222C169.485 108.009 168.466 108.608 167.358 108.982C166.249 109.355 165.075 109.495 163.91 109.392Z" fill="#00090A"/>
<path d="M49.7983 158.623C49.7983 158.623 50.1283 160.683 48.6783 161.093C48.2083 161.223 44.9283 161.603 43.8583 162.003C42.4683 162.513 41.3383 160.673 43.6183 159.303C45.8983 157.933 49.7983 158.623 49.7983 158.623Z" fill="#F4C7C3"/>
<path d="M74.8384 166.002C75.4606 164.121 75.9387 162.195 76.2684 160.242C76.3584 158.702 74.3484 158.692 72.8484 157.472C71.3484 156.252 71.7084 155.742 68.8484 155.672C65.9884 155.602 66.7384 152.382 64.1284 153.002C61.5184 153.622 61.8584 150.542 59.7684 151.392C57.6784 152.242 53.2284 156.792 52.4684 157.392C51.7084 157.992 53.4684 164.912 55.7884 165.462H57.0184C57.0184 165.462 57.0184 167.162 59.2984 167.162C59.6368 168.007 60.2533 168.711 61.046 169.158C61.8386 169.605 62.7602 169.769 63.6584 169.622C63.6584 169.622 64.4684 172.952 68.9184 169.622L67.1584 167.402C68.4344 166.292 69.799 165.289 71.2384 164.402C71.929 164.154 72.6887 164.181 73.3593 164.48C74.0299 164.778 74.5597 165.323 74.8384 166.002Z" fill="#F4C7C3"/>
<path d="M67.7383 170.063C68.4415 170.981 69.4301 171.639 70.5483 171.933C70.5483 171.933 69.2483 169.603 68.9583 169.613C68.5422 169.736 68.1346 169.887 67.7383 170.063Z" fill="#E2BBA6"/>
<path d="M76.1202 160.074C76.1202 160.074 85.1202 164.004 79.6302 174.384C79.6302 174.384 77.1602 168.104 73.1602 164.084L76.1202 160.074Z" fill="#F4C7C3"/>
<path d="M89.4609 161.193C89.4609 161.193 96.8809 167.423 92.2109 175.523C92.2109 175.523 131.801 178.183 160.391 171.933C181.911 167.223 206.591 144.763 213.951 126.353C213.951 126.353 215.891 97.5134 190.851 115.173C149.151 144.573 143.501 150.502 89.4609 161.193Z" fill="#00181B"/>
<path d="M191.611 155.004C183.454 157.525 175.06 159.201 166.561 160.004C150.561 161.644 138.111 168.264 130.421 171.004C124.421 173.174 102.651 172.444 93.5309 172.004C93.2682 173.195 92.8229 174.339 92.2109 175.394C92.2109 175.394 131.801 178.054 160.391 171.804C170.831 169.644 182.021 163.174 191.611 155.004Z" fill="#00090A"/>
<path d="M32.6787 175.639C32.6787 175.639 38.8852 171.039 45.8692 172.327C52.8531 173.614 58.6267 177.062 61.2126 177.588C61.2126 177.588 56.0216 176.829 51.3152 175.661C46.6087 174.492 42.2047 172.556 32.6787 175.639Z" fill="#323A39"/>
<path d="M51.9682 194.077C51.9682 194.077 48.2988 196.545 48.288 202.497C48.3618 206.983 48.6709 211.462 49.214 215.916L50.2906 215.645C50.2906 215.645 47.2042 198.181 51.9682 194.077Z" fill="#323A39"/>
<path d="M190.628 104.604L151.738 147.074L172.888 139.334L201.738 108.194C202.688 108.304 203.63 108.474 204.558 108.704C204.558 108.704 191.958 103.144 190.628 104.604Z" fill="#FF8139"/>
<path d="M135.952 175.511L113.422 201.691H130.422L153.212 173.281L135.952 175.511Z" fill="#FF8139"/>
</svg>

<svg xmlns="http://www.w3.org/2000/svg" fill="none" viewBox="0 0 225 225"><path fill="#E1E1E1" d="M124.34 54.895h61.21A33.451 33.451 0 01219 88.345v79.89a33.45 33.45 0 01-33.45 33.45H44.45A33.451 33.451 0 0111 168.235a113.34 113.34 0 01113.34-113.34z"/><path fill="#F4C7C3" d="M45.489 148.914a30.037 30.037 0 0011.67.74s6.28.89 3.39 10.75c0 0-8.33-1.26-10.75-.84-2.42.42-7.81 5.86-14.15 4.07-6.34-1.79 9.84-14.72 9.84-14.72z"/><path fill="#00181B" d="M145.43 107.504s-37.54 35.5-42.56 34.23l-45.71 7.92 3.39 10.75s45.67 2 53 0c7.33-2 22.84-11.4 22.84-11.4l9.04-41.5z"/><path fill="#F4C7C3" d="M202.861 199.673c.91-3.93 15.27-63.14 12-77.42-3.27-14.28-13.89-16.12-17.94-14.25-3.65 1.68-5.88-2.55-6.29-3.4-1.81-4.11-1.15-13.85 8.57-27.52l1.06-1.35s10.93-4.93 10-12.54c0 0-.47-3.54-4.85-3.34 0 0 6.17-11.46 1.92-19-4.41-7.82-37.57-16.352-42.83-2.352 0 0-17.17 48.722 2 53.952 3.369.844 4.4.798 7.78 0a51.675 51.675 0 01-3.31 13.55l-.68 1.22s-4.71 4.89-11.76.19c-3.78-2.53-8.25-2.46-13.1.07l-10.17 38.52-.32.61c-1.11 2.59-5.45 13.4-4.35 20.78 1.27 8.44 6.69 12.58 6.82 23.18l.14 10.59h9"/><path fill="#00181B" d="M165 30c-4 7.2-5.667 22-6 28.5.308-3.166 2.601-11.2 7-14.5 4-3 11-4 18.5 4s11.5 4.5 13.5 8.5c1.6 3.2 1.667 9.5 0 14 5.2-11.6 10.167-10.5 11.5-9 4-3.666 9.9-12.5 5.5-14.5-5.5-2.5-6-10.5-10.5-15s-8-.5-16-5-18.5-6-23.5 3zM192.5 89l10-14.5-2.5 1c-3.6 4.8-6.5 11-7.5 13.5z"/><path fill="#383E3F" d="M180 26.001c-6-1.6-11.5.667-13.5 2 2-3 6.5-5.5 13-4.5s10 4.5 13 5.5 7.5 0 10.5 2 4 4.5 6 9c1.6 3.6 4.667 6.167 6 7-1.833-.5-6-2.6-8-7-2.5-5.5-5-7.5-11.5-8s-8-4-15.5-6z"/><path fill="#00090A" d="M115.039 151.605c-9.82-.26-17.59 2.82-27.87 5.34-8.1 2-22.07.84-27.63.27l1 3.19s45.67 2 53 0c7.33-2 22.85-11.4 22.85-11.4l1.17-5.36c-6.3 4.15-15.53 8.14-22.52 7.96z"/><path fill="#000" d="M174.131 108.771C175.598 107.444 178 93 178 93l-3.869.928a46.915 46.915 0 01-3.202 12.616l-.648 1.132a8.168 8.168 0 01-3.406 1.801 8.307 8.307 0 01-3.875.054l.133.047c3.488.751 9.53.51 10.998-.807z" opacity=".1"/><path fill="#00181B" d="M203.519 201.134c3.13-23.6 18.08-48.66 12.06-79.17-2.84-14.38-14.55-15.86-18.6-13.96-3.65 1.68-5.88-2.54-6.28-3.4a12.306 12.306 0 01-.77-5.49c-7.13-.19-13.91-1-16-3.45-.587 3.542-1.93 6.339-3.43 8.339l-2.5 2.5s-2.5 1.021-9-.499c-4.833-1.13-8.7-1.05-13.57 1.52l-14.77 28.479s-2.16 19-2.16 31c-1 16.5-.64 12.91-.5 23.5v10.631h18.61"/><path fill="#F4C7C3" d="M76.281 161.004l13.18.22s7.82 3.8 2.75 14.33c0 0-10.59-1.5-12.83-.94s-3.1-13.61-3.1-13.61z"/><path stroke="#00181B" stroke-miterlimit="10" stroke-width="7" d="M48.238 220.001c17.5-1 30-15.312 30-32.98 0-17.667-14.342-31.99-32.01-31.99-17.667 0-29.49 14.323-29.49 31.99 0 17.668 14 33.98 31.5 32.98z"/><path fill="#00181B" d="M14.55 182.204s8.06.234 14.264-4.788c8.307-6.705 16.068-9.097 27.526-3.211 12.245 6.308 20.02 1.221 20.02 1.221s.32 5.374.865 10.3a85.006 85.006 0 00-15.471 2.07c-4.064.938-11.832 6.26-11.554 14.346.098 3.553 1.241 15.824 1.241 15.824s-6.108 1.833-10.833.504c0 0-.221-7.162-.704-14.258-.449-6.63-5.924-12.545-11.342-12.731-2.996-.104-14.002-.33-14.002-.33l-.01-8.947z"/><path fill="#F4C7C3" d="M47.74 151.675s-3.39-4.65-4.78-4.6c-1.39.05-2.62 1.45-3.46 1.31-.84-.14-2.62-1-4.07 0-1.45 1-1 1.76-3.45 1.81-2.45.05-2.4 1.45-3 2.42-.6.97-2 .37-2.62 1.76a41.354 41.354 0 00-1.43 7.47c0 .78 2.77 3.07 3.55 3.23a3.122 3.122 0 003.86-.66s2.41 1.11 3.91-1.73c0 0 2.51.61 3.74-1.06 0 0 4.18.16 3.95-3.57-.23-3.73 3.8-6.38 3.8-6.38z"/><path fill="#00090A" d="M163.91 109.392h.09c4.43.73 10.4-1 11.18-3.51.6-1.86 1.66-6.34 2.14-8.4a7.51 7.51 0 01-3.39-1.88 49.272 49.272 0 01-2.9 10.4l-.68 1.22a8.472 8.472 0 01-6.44 2.17z"/><path fill="#F4C7C3" d="M49.798 158.623s.33 2.06-1.12 2.47c-.47.13-3.75.51-4.82.91-1.39.51-2.52-1.33-.24-2.7 2.28-1.37 6.18-.68 6.18-.68zM74.838 166.002a39.033 39.033 0 001.43-5.76c.09-1.54-1.92-1.55-3.42-2.77s-1.14-1.73-4-1.8c-2.86-.07-2.11-3.29-4.72-2.67-2.61.62-2.27-2.46-4.36-1.61-2.09.85-6.54 5.4-7.3 6-.76.6 1 7.52 3.32 8.07h1.23s0 1.7 2.28 1.7a3.998 3.998 0 004.36 2.46s.81 3.33 5.26 0l-1.76-2.22a30.975 30.975 0 014.08-3 2.85 2.85 0 013.6 1.6z"/><path fill="#E2BBA6" d="M67.738 170.063a5.208 5.208 0 002.81 1.87s-1.3-2.33-1.59-2.32a9.973 9.973 0 00-1.22.45z"/><path fill="#F4C7C3" d="M76.12 160.074s9 3.93 3.51 14.31c0 0-2.47-6.28-6.47-10.3l2.96-4.01z"/><path fill="#00181B" d="M89.46 161.193s7.42 6.23 2.75 14.33c0 0 39.591 2.66 68.181-3.59 21.52-4.71 46.2-27.17 53.56-45.58 0 0 1.94-28.84-23.1-11.18-41.7 29.4-47.35 35.329-101.39 46.02z"/><path fill="#00090A" d="M191.611 155.004a124.493 124.493 0 01-25.05 5c-16 1.64-28.45 8.26-36.14 11-6 2.17-27.77 1.44-36.89 1a11.84 11.84 0 01-1.32 3.39s39.59 2.66 68.18-3.59c10.44-2.16 21.63-8.63 31.22-16.8z"/><path fill="#323A39" d="M32.679 175.639s6.206-4.6 13.19-3.312c6.984 1.287 12.758 4.735 15.344 5.261 0 0-5.191-.759-9.898-1.927-4.706-1.169-9.11-3.105-18.636-.022zM51.968 194.077s-3.67 2.468-3.68 8.42c.074 4.486.383 8.965.926 13.419l1.077-.271s-3.087-17.464 1.677-21.568z"/><path fill="#FF8139" d="M190.628 104.604l-38.89 42.47 21.15-7.74 28.85-31.14c.95.11 1.892.28 2.82.51 0 0-12.6-5.56-13.93-4.1zM135.952 175.511l-22.53 26.18h17l22.79-28.41-17.26 2.23z"/></svg>
